X: 20552
T: the Bride has a Bonny thing
%R: jig
B: James Oswald "The Caledonian Pocket Companion" v.2 p.55 #2
Z: 2019 John Chambers <jc:trillian.mit.edu>
M: 6/8
L: 1/8
K: Amix
"_Brisk"f |\
eAA ecc | fBB Baf | eAA ecc | eAA Aaf |\
eAA ecc | fBB Bcd | e2(f/^g/) agf | Te2A Acd |
e2(f/^g/) agf | T^g2B Bcd | e2(f/^g/) agf | ef^g aec |\
dfd cea | T^g2B Bcd | eAA ecc | eAA A2 :|
|: f |\
Te2A Bce | fec Baf | Te2A Bce | fec Aaf |\
Te2A Bce | fec Bcd | e2a (f/^g/a)f | Te2c ABc |
e2a (f/^g/a)f | T^g2b Bcd | ef^g aec | aec aec |\
(d/e/f)d cea | T^g2B Bcd | eAA ecc | eAA A2 :|
